img/main/review3.svg

<svg width="131" height="28" viewBox="0 0 131 28" fill="none" xmlns="http://www.w3.org/2000/svg">
<path d="M0 0H52V28H0V0Z" fill="#1D32A8"/>
<path fill-rule="evenodd" clip-rule="evenodd" d="M6 8.23H8.152V12.033L8.02 13.272H8.152C8.349 12.906 8.656 12.593 9.072 12.334C9.488 12.074 10.002 11.944 10.616 11.944C11.13 11.944 11.621 12.06 12.086 12.29C12.551 12.52 12.962 12.838 13.318 13.245C13.674 13.652 13.956 14.138 14.164 14.705C14.372 15.271 14.476 15.89 14.476 16.562C14.476 17.234 14.372 17.853 14.164 18.419C13.9744 18.9537 13.6876 19.4486 13.318 19.879C12.9748 20.2759 12.556 20.6006 12.086 20.834C11.621 21.064 11.13 21.179 10.616 21.179C10.003 21.179 9.488 21.049 9.072 20.789C8.656 20.53 8.349 20.218 8.152 19.852H8.02V20.896H6V8.23ZM10.172 19.039C10.457 19.039 10.728 18.979 10.985 18.862C11.243 18.7435 11.4748 18.5749 11.667 18.366C11.8732 18.1389 12.0346 17.8749 12.143 17.588C12.263 17.281 12.324 16.939 12.324 16.562C12.324 16.185 12.264 15.842 12.144 15.536C12.0353 15.249 11.8735 14.985 11.667 14.758C11.4748 14.5491 11.243 14.3805 10.985 14.262C10.5988 14.0893 10.1681 14.0426 9.75382 14.1283C9.33957 14.2141 8.96283 14.4281 8.677 14.74C8.47084 14.9671 8.30936 15.2311 8.201 15.518C8.081 15.825 8.021 16.173 8.021 16.562C8.021 16.952 8.081 17.299 8.201 17.606C8.321 17.912 8.481 18.172 8.677 18.384C8.86719 18.5908 9.0983 18.7559 9.35566 18.8686C9.61302 18.9814 9.89102 19.0394 10.172 19.039ZM21.424 19.764H21.293C21.0494 20.1919 20.6981 20.5487 20.274 20.799C19.847 21.052 19.36 21.179 18.812 21.179C17.794 21.179 17.036 20.843 16.537 20.171C16.039 19.498 15.79 18.602 15.79 17.481V12.228H17.942V17.198C17.942 17.824 18.071 18.287 18.328 18.588C18.585 18.888 18.96 19.038 19.453 19.038C19.749 19.038 20.009 18.971 20.233 18.835C20.458 18.699 20.65 18.517 20.808 18.287C20.968 18.057 21.088 17.785 21.17 17.473C21.2538 17.1463 21.2952 16.8102 21.293 16.473V12.228H23.445V20.896H21.425L21.424 19.764ZM28.997 25C28.427 25 27.921 24.92 27.477 24.761C27.061 24.6166 26.6702 24.4077 26.319 24.142C26.0056 23.9038 25.7289 23.6208 25.498 23.302C25.2927 23.0218 25.1321 22.7114 25.022 22.382L27.075 21.497C27.228 21.957 27.48 22.314 27.831 22.567C28.181 22.821 28.57 22.948 28.997 22.948C29.676 22.948 30.212 22.721 30.607 22.267C31.001 21.813 31.197 21.179 31.197 20.365V19.764H31.067C30.8159 20.1404 30.4741 20.4476 30.073 20.657C29.663 20.875 29.177 20.984 28.619 20.984C28.137 20.984 27.669 20.878 27.215 20.666C26.7538 20.4489 26.3425 20.1388 26.007 19.755C25.641 19.3341 25.352 18.8521 25.153 18.331C24.934 17.777 24.825 17.157 24.825 16.473C24.825 15.789 24.934 15.167 25.153 14.607C25.3505 14.0825 25.6397 13.5973 26.007 13.174C26.357 12.779 26.76 12.476 27.215 12.264C27.6536 12.0548 28.1331 11.9455 28.619 11.944C29.177 11.944 29.662 12.054 30.073 12.272C30.483 12.49 30.815 12.788 31.067 13.165H31.197V12.228H33.251V20.277C33.251 21.008 33.147 21.665 32.939 22.249C32.7517 22.7977 32.4558 23.3031 32.069 23.735C31.696 24.142 31.249 24.455 30.729 24.673C30.1793 24.8967 29.5904 25.0079 28.997 25ZM29.079 18.897C29.3524 18.8962 29.6229 18.8401 29.8741 18.7322C30.1253 18.6243 30.3522 18.4667 30.541 18.269C30.738 18.063 30.897 17.809 31.017 17.509C31.137 17.208 31.197 16.863 31.197 16.473C31.197 16.084 31.137 15.736 31.017 15.43C30.9101 15.1447 30.7484 14.8831 30.541 14.66C30.3522 14.4623 30.1253 14.3047 29.8741 14.1968C29.6229 14.0889 29.3524 14.0328 29.079 14.032C28.8071 14.0326 28.5382 14.0895 28.2893 14.1992C28.0405 14.3088 27.817 14.4688 27.633 14.669C27.4281 14.894 27.2667 15.1551 27.157 15.439C27.037 15.739 26.977 16.084 26.977 16.473C26.977 16.863 27.037 17.208 27.157 17.508C27.277 17.809 27.437 18.063 27.633 18.269C27.8188 18.4663 28.0429 18.6237 28.2914 18.7316C28.54 18.8396 28.808 18.8959 29.079 18.897ZM36.29 10.972C36.104 10.972 35.926 10.934 35.756 10.857C35.5885 10.7818 35.4378 10.6737 35.313 10.539C35.0478 10.2531 34.9034 9.87585 34.91 9.486C34.9032 9.09629 35.0472 8.71901 35.312 8.433C35.439 8.298 35.586 8.192 35.756 8.115C35.926 8.038 36.104 8 36.29 8C36.673 8 37.002 8.144 37.276 8.433C37.549 8.723 37.686 9.073 37.686 9.486C37.686 9.899 37.549 10.25 37.276 10.539C37.1517 10.6769 36.9995 10.7869 36.8296 10.8615C36.6596 10.9362 36.4756 10.9738 36.29 10.972ZM35.222 20.896V12.228H37.374V20.896H35.222ZM41.366 13.36H41.497C41.7406 12.9321 42.0919 12.5753 42.516 12.325C42.943 12.072 43.43 11.945 43.978 11.945C44.481 11.945 44.925 12.033 45.308 12.21C45.691 12.387 46.006 12.638 46.253 12.962C46.499 13.286 46.685 13.676 46.811 14.13C46.937 14.584 47 15.088 47 15.642V20.896H44.848V15.926C44.848 15.3 44.719 14.837 44.462 14.536C44.205 14.236 43.83 14.086 43.337 14.086C43.0632 14.0802 42.7932 14.1505 42.557 14.289C42.3284 14.4285 42.1323 14.6153 41.982 14.837C41.823 15.067 41.702 15.338 41.62 15.651C41.5362 15.9777 41.4948 16.3138 41.497 16.651V20.896H39.345V12.228H41.365L41.366 13.36Z" fill="white"/>
<path d="M59.216 13.754H59.08V12.704H57V20.737H59.216V16.802C59.216 16.474 59.259 16.166 59.343 15.876C59.419 15.6037 59.5451 15.348 59.715 15.122C59.8742 14.9127 60.076 14.7396 60.307 14.614C60.539 14.488 60.807 14.425 61.111 14.425C61.619 14.425 62.005 14.565 62.27 14.843C62.535 15.122 62.668 15.55 62.668 16.13V20.738H64.884V15.869C64.884 15.355 64.819 14.888 64.689 14.467C64.56 14.046 64.368 13.685 64.114 13.385C63.861 13.085 63.536 12.852 63.141 12.689C62.747 12.525 62.29 12.443 61.771 12.443C61.207 12.443 60.706 12.56 60.266 12.795C59.826 13.03 59.476 13.35 59.216 13.754Z" fill="#1D32A8"/>
<path d="M78.334 13.754H78.198V12.704H76.118V20.737H78.334V16.802C78.334 16.474 78.376 16.166 78.461 15.876C78.537 15.6037 78.6631 15.348 78.833 15.122C78.9922 14.9127 79.194 14.7396 79.425 14.614C79.656 14.488 79.924 14.425 80.228 14.425C80.736 14.425 81.122 14.565 81.388 14.843C81.653 15.122 81.785 15.55 81.785 16.13V20.738H84.001V15.869C84.001 15.355 83.937 14.888 83.807 14.467C83.677 14.046 83.485 13.685 83.232 13.385C82.978 13.085 82.654 12.852 82.258 12.689C81.864 12.525 81.408 12.443 80.888 12.443C80.324 12.443 79.823 12.56 79.383 12.795C78.943 13.03 78.594 13.35 78.334 13.754Z" fill="#1D32A8"/>
<path d="M110.588 20.803C111.058 20.9408 111.546 21.0072 112.035 21C112.525 21.0059 113.013 20.934 113.481 20.787C113.885 20.6608 114.263 20.4637 114.597 20.205C114.893 19.9765 115.138 19.6891 115.317 19.361C115.486 19.044 115.571 18.711 115.571 18.361C115.571 17.77 115.365 17.26 114.953 16.828C114.541 16.396 113.913 16.082 113.067 15.885L111.798 15.59C111.46 15.503 111.192 15.405 110.994 15.295C110.797 15.186 110.698 15.038 110.698 14.852C110.698 14.656 110.817 14.495 111.053 14.369C111.29 14.243 111.567 14.18 111.882 14.18C112.199 14.1827 112.511 14.2554 112.796 14.393C113.1 14.5349 113.346 14.7786 113.49 15.082L115.401 14.328C115.108 13.673 114.651 13.194 114.031 12.893C113.411 12.593 112.706 12.443 111.916 12.443C111.468 12.4397 111.021 12.4975 110.588 12.615C110.205 12.7168 109.841 12.8832 109.514 13.107C109.209 13.32 108.97 13.579 108.795 13.885C108.62 14.191 108.533 14.541 108.533 14.934C108.526 15.2539 108.602 15.5702 108.753 15.852C108.895 16.109 109.085 16.337 109.311 16.524C109.539 16.7118 109.793 16.8666 110.064 16.984C110.322 17.0982 110.591 17.186 110.867 17.246L112.035 17.491C112.52 17.601 112.861 17.724 113.058 17.861C113.256 17.997 113.354 18.175 113.354 18.393C113.354 18.59 113.236 18.76 112.999 18.902C112.762 19.044 112.441 19.115 112.035 19.115C111.64 19.115 111.281 19.014 110.961 18.811C110.639 18.609 110.382 18.301 110.191 17.885L108.211 18.705C108.472 19.3463 108.916 19.8966 109.488 20.287C109.827 20.5134 110.197 20.6874 110.588 20.803Z" fill="#1D32A8"/>
<path d="M116.383 14.541H117.838V18.066C117.838 18.973 118.103 19.672 118.633 20.164C118.874 20.3917 119.158 20.5674 119.47 20.68C119.803 20.806 120.178 20.868 120.595 20.868C120.927 20.8708 121.259 20.8406 121.585 20.778C121.884 20.718 122.163 20.628 122.422 20.508L121.797 18.623C121.695 18.689 121.588 18.74 121.475 18.779C121.362 18.816 121.21 18.836 121.018 18.836C120.725 18.836 120.499 18.749 120.342 18.574C120.229 18.464 120.153 18.331 120.114 18.172C120.074 18.014 120.054 17.842 120.054 17.656V14.541H122.084V12.705H120.054V10.245H117.838V12.705H116.383V14.541Z" fill="#1D32A8"/>
<path fill-rule="evenodd" clip-rule="evenodd" d="M74.561 18.804C74.1837 19.4533 73.652 19.9995 73.013 20.394C72.364 20.798 71.573 21 70.636 21C70.0373 21.006 69.4429 20.8973 68.885 20.68C68.3653 20.4774 67.8909 20.1739 67.489 19.787C67.0933 19.403 66.7796 18.9427 66.567 18.434C66.347 17.915 66.237 17.344 66.237 16.721C66.2319 15.5972 66.6694 14.5166 67.455 13.713C67.8593 13.3042 68.3418 12.981 68.8737 12.7628C69.4056 12.5446 69.9761 12.4358 70.551 12.443C71.217 12.443 71.809 12.549 72.328 12.763C72.847 12.975 73.281 13.27 73.631 13.648C73.981 14.025 74.245 14.47 74.426 14.984C74.606 15.497 74.696 16.054 74.696 16.656V16.852C74.6853 16.9114 74.6796 16.9716 74.679 17.032C74.6675 17.0916 74.6622 17.1523 74.663 17.213H68.42C68.465 17.541 68.558 17.823 68.699 18.057C68.9681 18.5118 69.401 18.8464 69.909 18.992C70.157 19.062 70.41 19.098 70.669 19.098C71.177 19.098 71.598 18.986 71.93 18.762C72.263 18.538 72.525 18.257 72.717 17.918L74.561 18.803V18.804ZM72.404 15.213C72.488 15.388 72.537 15.546 72.548 15.689H68.539C68.685 15.219 68.939 14.852 69.299 14.59C69.66 14.327 70.078 14.197 70.552 14.197C70.8487 14.1898 71.1441 14.2397 71.422 14.344C71.6468 14.431 71.8536 14.5588 72.032 14.721C72.1854 14.8606 72.3115 15.0274 72.404 15.213Z" fill="#1D32A8"/>
<path fill-rule="evenodd" clip-rule="evenodd" d="M89.551 9H91.767V12.525L91.631 13.672H91.767C91.97 13.333 92.286 13.044 92.714 12.803C93.143 12.563 93.673 12.443 94.304 12.443C94.834 12.443 95.339 12.549 95.819 12.763C96.299 12.975 96.721 13.27 97.088 13.648C97.454 14.025 97.745 14.475 97.958 15C98.1767 15.5471 98.2861 16.1318 98.28 16.721C98.2866 17.3105 98.1775 17.8955 97.959 18.443C97.7588 18.9457 97.463 19.4049 97.088 19.795C96.721 20.172 96.298 20.467 95.818 20.68C95.339 20.893 94.835 21 94.305 21C93.673 21 93.143 20.88 92.715 20.64C92.285 20.399 91.97 20.11 91.767 19.77H91.631V20.738H89.551V9ZM95.388 18.393C94.9752 18.793 94.4228 19.0165 93.848 19.016C93.554 19.016 93.275 18.964 93.01 18.861C92.745 18.757 92.511 18.607 92.308 18.409C92.105 18.213 91.942 17.973 91.818 17.689C91.693 17.404 91.631 17.082 91.631 16.721C91.6257 16.3892 91.6893 16.0599 91.818 15.754C91.9324 15.4835 92.0989 15.2382 92.308 15.032C92.511 14.836 92.745 14.686 93.01 14.582C93.275 14.478 93.554 14.426 93.848 14.426C94.4228 14.4255 94.9752 14.649 95.388 15.049C95.5971 15.2552 95.7636 15.5005 95.878 15.771C96.002 16.055 96.064 16.371 96.064 16.721C96.064 17.071 96.002 17.388 95.878 17.673C95.754 17.956 95.59 18.197 95.388 18.393Z" fill="#1D32A8"/>
<path fill-rule="evenodd" clip-rule="evenodd" d="M104.811 19.886H104.675C104.415 20.191 104.103 20.454 103.736 20.672C103.37 20.891 102.899 21 102.324 21C101.912 21.0028 101.502 20.9335 101.114 20.795C100.753 20.668 100.417 20.4766 100.124 20.23C99.8434 19.9914 99.6182 19.6945 99.464 19.36C99.3042 19.0106 99.2236 18.6302 99.228 18.246C99.228 17.831 99.312 17.456 99.481 17.123C99.651 16.79 99.888 16.503 100.192 16.263C100.512 16.014 100.877 15.8275 101.266 15.713C101.678 15.587 102.126 15.525 102.611 15.525C103.153 15.525 103.598 15.565 103.948 15.648C104.298 15.73 104.585 15.814 104.811 15.902V15.656C104.811 15.23 104.636 14.877 104.286 14.598C103.936 14.32 103.502 14.18 102.984 14.18C102.217 14.18 101.568 14.492 101.038 15.115L99.431 14.049C100.311 12.979 101.511 12.443 103.034 12.443C104.32 12.443 105.301 12.735 105.978 13.32C106.655 13.904 106.993 14.77 106.993 15.918V20.738H104.811V19.886ZM104.007 17.189C104.283 17.26 104.552 17.356 104.811 17.476C104.81 17.7164 104.761 17.9531 104.666 18.1741C104.572 18.3952 104.434 18.5951 104.261 18.762C103.87 19.1302 103.351 19.333 102.814 19.328C102.453 19.328 102.135 19.23 101.858 19.033C101.582 18.836 101.444 18.574 101.444 18.246C101.444 17.918 101.588 17.642 101.875 17.418C102.163 17.194 102.572 17.082 103.102 17.082C103.407 17.0795 103.711 17.1155 104.007 17.189Z" fill="#1D32A8"/>
<path fill-rule="evenodd" clip-rule="evenodd" d="M128.818 19.885H128.682C128.422 20.191 128.11 20.454 127.743 20.672C127.377 20.891 126.906 21 126.331 21C125.919 21.0028 125.509 20.9335 125.121 20.795C124.76 20.668 124.424 20.4766 124.131 20.23C123.85 19.9914 123.625 19.6945 123.471 19.36C123.311 19.0106 123.231 18.6302 123.235 18.246C123.235 17.831 123.319 17.456 123.488 17.123C123.658 16.79 123.894 16.503 124.198 16.263C124.519 16.0139 124.883 15.8273 125.273 15.713C125.685 15.587 126.133 15.525 126.618 15.525C127.16 15.525 127.605 15.565 127.955 15.648C128.305 15.73 128.592 15.814 128.818 15.902V15.656C128.818 15.23 128.643 14.877 128.293 14.598C127.943 14.32 127.509 14.18 126.99 14.18C126.223 14.18 125.575 14.492 125.045 15.115L123.438 14.049C124.318 12.979 125.518 12.443 127.041 12.443C128.327 12.443 129.308 12.735 129.985 13.32C130.662 13.904 131 14.77 131 15.918V20.738H128.818V19.885ZM128.014 17.189C128.29 17.2596 128.559 17.3554 128.818 17.475C128.817 17.7154 128.768 17.9531 128.673 18.1741C128.579 18.3952 128.441 18.5951 128.268 18.762C127.877 19.1302 127.358 19.333 126.821 19.328C126.46 19.328 126.142 19.23 125.865 19.033C125.589 18.836 125.451 18.574 125.451 18.246C125.451 17.918 125.595 17.642 125.882 17.418C126.169 17.194 126.579 17.082 127.109 17.082C127.414 17.0795 127.718 17.1155 128.014 17.189Z" fill="#1D32A8"/>
</svg>

<svg width="131" height="28" fill="none" xmlns="http://www.w3.org/2000/svg"><path d="M0 0h52v28H0V0z" fill="#1D32A8"/><path fill-rule="evenodd" clip-rule="evenodd" d="M6 8.23h2.152v3.803l-.132 1.239h.132c.197-.366.504-.679.92-.938.416-.26.93-.39 1.544-.39.514 0 1.005.116 1.47.346.465.23.876.548 1.232.955.356.407.638.893.846 1.46.208.566.312 1.185.312 1.857 0 .672-.104 1.291-.312 1.857a4.601 4.601 0 0 1-.846 1.46 3.953 3.953 0 0 1-1.232.955c-.465.23-.956.345-1.47.345-.613 0-1.128-.13-1.544-.39-.416-.259-.723-.571-.92-.937H8.02v1.044H6V8.23zm4.172 10.809c.285 0 .556-.06.813-.177a2.13 2.13 0 0 0 .682-.496 2.44 2.44 0 0 0 .476-.778c.12-.307.181-.649.181-1.026s-.06-.72-.18-1.026a2.441 2.441 0 0 0-.477-.778 2.016 2.016 0 0 0-2.99-.018 2.44 2.44 0 0 0-.476.778 2.85 2.85 0 0 0-.18 1.044c0 .39.06.737.18 1.044.12.306.28.566.476.778a2.027 2.027 0 0 0 1.495.655zm11.252.725h-.131a2.824 2.824 0 0 1-1.019 1.035c-.427.253-.914.38-1.462.38-1.018 0-1.776-.336-2.275-1.008-.498-.673-.747-1.569-.747-2.69v-5.253h2.152v4.97c0 .626.129 1.089.386 1.39.257.3.632.45 1.125.45.296 0 .556-.067.78-.203.225-.136.417-.318.575-.548.16-.23.28-.502.362-.814.084-.327.125-.663.123-1v-4.245h2.152v8.668h-2.02l-.001-1.132zM28.997 25a4.49 4.49 0 0 1-1.52-.239 4.205 4.205 0 0 1-1.158-.619 4.009 4.009 0 0 1-.821-.84 3.358 3.358 0 0 1-.476-.92l2.053-.885c.153.46.405.817.756 1.07.35.254.739.381 1.166.381.679 0 1.215-.227 1.61-.681.394-.454.59-1.088.59-1.902v-.601h-.13a2.693 2.693 0 0 1-.994.893c-.41.218-.896.327-1.454.327-.482 0-.95-.106-1.404-.318a3.694 3.694 0 0 1-1.208-.911 4.755 4.755 0 0 1-.854-1.424c-.219-.554-.328-1.174-.328-1.858 0-.684.109-1.306.328-1.866a4.73 4.73 0 0 1 .854-1.433 3.68 3.68 0 0 1 1.208-.91c.439-.21.918-.319 1.404-.32.558 0 1.043.11 1.454.328a2.7 2.7 0 0 1 .994.893h.13v-.937h2.054v8.049c0 .731-.104 1.388-.312 1.972a4.319 4.319 0 0 1-.87 1.486c-.373.407-.82.72-1.34.938a4.438 4.438 0 0 1-1.732.327zm.082-6.103a2.03 2.03 0 0 0 1.462-.628c.197-.206.356-.46.476-.76.12-.301.18-.646.18-1.036 0-.389-.06-.737-.18-1.043a2.333 2.333 0 0 0-.476-.77 2.03 2.03 0 0 0-1.462-.628 1.969 1.969 0 0 0-1.446.637 2.461 2.461 0 0 0-.476.77c-.12.3-.18.645-.18 1.034 0 .39.06.735.18 1.035.12.301.28.555.476.761a1.997 1.997 0 0 0 1.446.628zm7.211-7.925a1.28 1.28 0 0 1-.534-.115 1.367 1.367 0 0 1-.443-.318 1.51 1.51 0 0 1-.403-1.053c-.007-.39.137-.767.402-1.053a1.39 1.39 0 0 1 .444-.318A1.28 1.28 0 0 1 36.29 8c.383 0 .712.144.986.433.273.29.41.64.41 1.053 0 .413-.137.764-.41 1.053a1.31 1.31 0 0 1-.986.433zm-1.068 9.924v-8.668h2.152v8.668h-2.152zm6.144-7.536h.131a2.824 2.824 0 0 1 1.019-1.035c.427-.253.914-.38 1.462-.38.503 0 .947.088 1.33.265.383.177.698.428.945.752.246.324.432.714.558 1.168.126.454.189.958.189 1.512v5.254h-2.152v-4.97c0-.626-.129-1.089-.386-1.39-.257-.3-.632-.45-1.125-.45a1.48 1.48 0 0 0-.78.203c-.229.14-.425.326-.575.548-.159.23-.28.501-.362.814a3.922 3.922 0 0 0-.123 1v4.245h-2.152v-8.668h2.02l.001 1.132z" fill="#fff"/><path d="M59.216 13.754h-.136v-1.05H57v8.033h2.216v-3.935c0-.328.043-.636.127-.926a2.27 2.27 0 0 1 .372-.754c.16-.21.361-.382.592-.508.232-.126.5-.189.804-.189.508 0 .894.14 1.159.418.265.279.398.707.398 1.287v4.608h2.216v-4.869c0-.514-.065-.981-.195-1.402a3.023 3.023 0 0 0-.575-1.082 2.494 2.494 0 0 0-.973-.696c-.394-.164-.851-.246-1.37-.246-.564 0-1.065.117-1.505.352-.44.235-.79.555-1.05.959zm19.118 0h-.136v-1.05h-2.08v8.033h2.216v-3.935c0-.328.042-.636.127-.926a2.27 2.27 0 0 1 .372-.754c.16-.21.361-.382.592-.508.231-.126.499-.189.803-.189.508 0 .894.14 1.16.418.265.279.397.707.397 1.287v4.608h2.216v-4.869c0-.514-.064-.981-.194-1.402a3.054 3.054 0 0 0-.575-1.082 2.497 2.497 0 0 0-.974-.696c-.394-.164-.85-.246-1.37-.246-.564 0-1.065.117-1.505.352-.44.235-.789.555-1.049.959zm32.254 7.049c.47.138.958.204 1.447.197.49.006.978-.066 1.446-.213a3.552 3.552 0 0 0 1.116-.582c.296-.228.541-.516.72-.844.169-.317.254-.65.254-1 0-.591-.206-1.101-.618-1.533-.412-.432-1.04-.746-1.886-.943l-1.269-.295a3.474 3.474 0 0 1-.804-.295c-.197-.109-.296-.257-.296-.443 0-.196.119-.357.355-.483.237-.126.514-.189.829-.189.317.003.629.075.914.213.304.142.55.386.694.689l1.911-.754c-.293-.655-.75-1.134-1.37-1.435-.62-.3-1.325-.45-2.115-.45a4.933 4.933 0 0 0-1.328.172 3.49 3.49 0 0 0-1.074.492 2.388 2.388 0 0 0-.719.778 2.076 2.076 0 0 0-.262 1.049c-.007.32.069.636.22.918.142.257.332.485.558.672.228.188.482.343.753.46.258.114.527.202.803.262l1.168.245c.485.11.826.233 1.023.37.198.136.296.314.296.532 0 .197-.118.367-.355.509-.237.142-.558.213-.964.213-.395 0-.754-.101-1.074-.304-.322-.202-.579-.51-.77-.926l-1.98.82a3.523 3.523 0 0 0 1.277 1.582c.339.226.709.4 1.1.516zm5.795-6.262h1.455v3.525c0 .907.265 1.606.795 2.098.241.228.525.403.837.516a3.16 3.16 0 0 0 1.125.188c.332.003.664-.027.99-.09.299-.06.578-.15.837-.27l-.625-1.885a1.472 1.472 0 0 1-.322.156 1.508 1.508 0 0 1-.457.057c-.293 0-.519-.087-.676-.262a.82.82 0 0 1-.228-.402 2.1 2.1 0 0 1-.06-.516v-3.115h2.03v-1.836h-2.03v-2.46h-2.216v2.46h-1.455v1.836z" fill="#1D32A8"/><path fill-rule="evenodd" clip-rule="evenodd" d="M74.561 18.804a4.563 4.563 0 0 1-1.548 1.59c-.649.404-1.44.606-2.377.606a4.695 4.695 0 0 1-1.751-.32 4.226 4.226 0 0 1-1.396-.893 4.075 4.075 0 0 1-.922-1.353 4.345 4.345 0 0 1-.33-1.713 4.275 4.275 0 0 1 1.218-3.008 4.28 4.28 0 0 1 3.096-1.27c.666 0 1.258.106 1.777.32.519.212.953.507 1.303.885.35.377.614.822.795 1.336.18.513.27 1.07.27 1.672v.196c-.01.06-.016.12-.017.18a.894.894 0 0 0-.016.181H68.42a2.2 2.2 0 0 0 .279.844c.27.455.702.79 1.21.935.248.07.501.106.76.106.508 0 .929-.112 1.261-.336.333-.224.595-.505.787-.844l1.844.885v.001zm-2.157-3.591c.084.175.133.333.144.476h-4.009c.146-.47.4-.837.76-1.099a2.071 2.071 0 0 1 1.253-.393c.297-.007.592.043.87.147.225.087.432.215.61.377.153.14.28.306.372.492zM89.551 9h2.216v3.525l-.136 1.147h.136c.203-.339.519-.628.947-.869.429-.24.959-.36 1.59-.36.53 0 1.035.106 1.515.32.48.212.902.507 1.269.885.366.377.657.827.87 1.352a4.51 4.51 0 0 1 .322 1.721 4.51 4.51 0 0 1-.321 1.722c-.2.503-.496.962-.871 1.352-.367.377-.79.672-1.27.885-.479.213-.983.32-1.513.32-.632 0-1.162-.12-1.59-.36-.43-.241-.745-.53-.948-.87h-.136v.968h-2.08V9zm5.837 9.393a2.21 2.21 0 0 1-1.54.623c-.294 0-.573-.052-.838-.155a2.085 2.085 0 0 1-.702-.452 2.222 2.222 0 0 1-.49-.72 2.385 2.385 0 0 1-.187-.968 2.395 2.395 0 0 1 .187-.967 2.11 2.11 0 0 1 1.192-1.172c.265-.104.544-.156.838-.156a2.21 2.21 0 0 1 1.54.623c.21.206.376.452.49.722.124.284.186.6.186.95s-.062.667-.186.952a2.249 2.249 0 0 1-.49.72zm9.423 1.493h-.136c-.26.305-.572.568-.939.786-.366.219-.837.328-1.412.328a3.53 3.53 0 0 1-1.21-.205 3.174 3.174 0 0 1-.99-.565 2.535 2.535 0 0 1-.66-.87c-.16-.35-.24-.73-.236-1.114 0-.415.084-.79.253-1.123.17-.333.407-.62.711-.86a3.23 3.23 0 0 1 1.074-.55c.412-.126.86-.188 1.345-.188.542 0 .987.04 1.337.123.35.082.637.166.863.254v-.246c0-.426-.175-.779-.525-1.058-.35-.278-.784-.418-1.302-.418-.767 0-1.416.312-1.946.935l-1.607-1.066c.88-1.07 2.08-1.606 3.603-1.606 1.286 0 2.267.292 2.944.877.677.584 1.015 1.45 1.015 2.598v4.82h-2.182v-.852zm-.804-2.697c.276.071.545.167.804.287a1.791 1.791 0 0 1-.55 1.286c-.391.368-.91.571-1.447.566-.361 0-.679-.098-.956-.295a.92.92 0 0 1-.414-.787c0-.328.144-.604.431-.828.288-.224.697-.336 1.227-.336.305-.003.609.034.905.107zm24.811 2.696h-.136c-.26.306-.572.569-.939.787-.366.219-.837.328-1.412.328a3.53 3.53 0 0 1-1.21-.205 3.174 3.174 0 0 1-.99-.565 2.528 2.528 0 0 1-.66-.87 2.61 2.61 0 0 1-.236-1.114c0-.415.084-.79.253-1.123.17-.333.406-.62.71-.86.321-.25.685-.436 1.075-.55.412-.126.86-.188 1.345-.188.542 0 .987.04 1.337.123.35.082.637.166.863.254v-.246c0-.426-.175-.779-.525-1.058-.35-.278-.784-.418-1.303-.418-.767 0-1.415.312-1.945.935l-1.607-1.066c.88-1.07 2.08-1.606 3.603-1.606 1.286 0 2.267.292 2.944.877.677.584 1.015 1.45 1.015 2.598v4.82h-2.182v-.853zm-.804-2.696c.276.07.545.166.804.286a1.788 1.788 0 0 1-.55 1.287c-.391.368-.91.571-1.447.566-.361 0-.679-.098-.956-.295a.92.92 0 0 1-.414-.787c0-.328.144-.604.431-.828.287-.224.697-.336 1.227-.336.305-.003.609.034.905.107z" fill="#1D32A8"/></svg>
